(Block-name: Header)
(Block-expand: 0)
(Block-enable: 1)
(Exported by FreeCAD)
(Post Processor: grbl_post)
(Output Time:2022-05-22 21:11:04.525049)
(Begin preamble)
G17 G90
G21
(Begin operation: Fixture)
(Path: Fixture)
G54
(Finish operation: Fixture)
(Begin operation: TC: Default Tool)
(Path: TC: Default Tool)
(TC: Default Tool)
(Begin toolchange)
( M6 T1.0 )
M3 S0.0
(Finish operation: TC: Default Tool)
(Begin operation: Profile)
(Path: Profile)
(Profile)
(Compensated Tool Path. Diameter: 0.5)
(Block-name: block)
(Block-expand: 0)
(Block-enable: 1)
G0 Z9
G0 X58.3839 Y11.7696
G0 Z7
G1 X58.3839 Y11.7696 Z3.5 F60.000
G3 X58.3379 Y11.1906 Z3.5 I0.316 J-0.316 K0 F60.000
G3 X59.0619 Y11.7166 Z3.5 I0.362 J0.263 K0 F60.000
G3 X58.3839 Y11.7696 Z3.5 I-0.362 J-0.263 K0 F60.000
G1 X58.3839 Y11.7696 Z3 F60.000
G3 X58.3379 Y11.1906 Z3 I0.316 J-0.316 K0 F60.000
G3 X59.0619 Y11.7166 Z3 I0.362 J0.263 K0 F60.000
G3 X58.3839 Y11.7696 Z3 I-0.362 J-0.263 K0 F60.000
G1 X58.3839 Y11.7696 Z2.5 F60.000
G3 X58.3379 Y11.1906 Z2.5 I0.316 J-0.316 K0 F60.000
G3 X59.0619 Y11.7166 Z2.5 I0.362 J0.263 K0 F60.000
G3 X58.3839 Y11.7696 Z2.5 I-0.362 J-0.263 K0 F60.000
G1 X58.3839 Y11.7696 Z2 F60.000
G3 X58.3379 Y11.1906 Z2 I0.316 J-0.316 K0 F60.000
G3 X59.0619 Y11.7166 Z2 I0.362 J0.263 K0 F60.000
G3 X58.3839 Y11.7696 Z2 I-0.362 J-0.263 K0 F60.000
G1 X58.3839 Y11.7696 Z1.5 F60.000
G3 X58.3379 Y11.1906 Z1.5 I0.316 J-0.316 K0 F60.000
G3 X59.0619 Y11.7166 Z1.5 I0.362 J0.263 K0 F60.000
G3 X58.3839 Y11.7696 Z1.5 I-0.362 J-0.263 K0 F60.000
G1 X58.3839 Y11.7696 Z1 F60.000
G3 X58.3379 Y11.1906 Z1 I0.316 J-0.316 K0 F60.000
G3 X59.0619 Y11.7166 Z1 I0.362 J0.263 K0 F60.000
G3 X58.3839 Y11.7696 Z1 I-0.362 J-0.263 K0 F60.000
G1 X58.3839 Y11.7696 Z0.5 F60.000
G3 X58.3379 Y11.1906 Z0.5 I0.316 J-0.316 K0 F60.000
G3 X59.0619 Y11.7166 Z0.5 I0.362 J0.263 K0 F60.000
G3 X58.3839 Y11.7696 Z0.5 I-0.362 J-0.263 K0 F60.000
G1 X58.3839 Y11.7696 Z0 F60.000
G3 X58.3379 Y11.1906 Z0 I0.316 J-0.316 K0 F60.000
G3 X59.0619 Y11.7166 Z0 I0.362 J0.263 K0 F60.000
G3 X58.3839 Y11.7696 Z0 I-0.362 J-0.263 K0 F60.000
G0 Z9
(Block-name: block)
(Block-expand: 0)
(Block-enable: 1)
G0 Z9
G0 X58.3839 Y11.7696
G0 Y11.7696 X61.9499
G0 Y11.7696 Z7 X61.9499
G1 X61.9499 Y11.7696 Z3.5 F60.000
G1 X61.9499 Y7.0386 Z3.5 F60.000
G1 X81.6499 Y7.0386 Z3.5 F60.000
G1 X81.6499 Y15.8686 Z3.5 F60.000
G1 X61.9499 Y15.8686 Z3.5 F60.000
G1 X61.9499 Y11.7696 Z3.5 F60.000
G1 X61.9499 Y11.7696 Z3 F60.000
G1 X61.9499 Y7.0386 Z3 F60.000
G1 X81.6499 Y7.0386 Z3 F60.000
G1 X81.6499 Y15.8686 Z3 F60.000
G1 X61.9499 Y15.8686 Z3 F60.000
G1 X61.9499 Y11.7696 Z3 F60.000
G1 X61.9499 Y11.7696 Z2.5 F60.000
G1 X61.9499 Y7.0386 Z2.5 F60.000
G1 X81.6499 Y7.0386 Z2.5 F60.000
G1 X81.6499 Y15.8686 Z2.5 F60.000
G1 X61.9499 Y15.8686 Z2.5 F60.000
G1 X61.9499 Y11.7696 Z2.5 F60.000
G1 X61.9499 Y11.7696 Z2 F60.000
G1 X61.9499 Y7.0386 Z2 F60.000
G1 X81.6499 Y7.0386 Z2 F60.000
G1 X81.6499 Y15.8686 Z2 F60.000
G1 X61.9499 Y15.8686 Z2 F60.000
G1 X61.9499 Y11.7696 Z2 F60.000
G1 X61.9499 Y11.7696 Z1.5 F60.000
G1 X61.9499 Y7.0386 Z1.5 F60.000
G1 X81.6499 Y7.0386 Z1.5 F60.000
G1 X81.6499 Y15.8686 Z1.5 F60.000
G1 X61.9499 Y15.8686 Z1.5 F60.000
G1 X61.9499 Y11.7696 Z1.5 F60.000
G1 X61.9499 Y11.7696 Z1 F60.000
G1 X61.9499 Y7.0386 Z1 F60.000
G1 X81.6499 Y7.0386 Z1 F60.000
G1 X81.6499 Y15.8686 Z1 F60.000
G1 X61.9499 Y15.8686 Z1 F60.000
G1 X61.9499 Y11.7696 Z1 F60.000
G1 X61.9499 Y11.7696 Z0.5 F60.000
G1 X61.9499 Y7.0386 Z0.5 F60.000
G1 X81.6499 Y7.0386 Z0.5 F60.000
G1 X81.6499 Y15.8686 Z0.5 F60.000
G1 X61.9499 Y15.8686 Z0.5 F60.000
G1 X61.9499 Y11.7696 Z0.5 F60.000
G1 X61.9499 Y11.7696 Z0 F60.000
G1 X61.9499 Y7.0386 Z0 F60.000
G1 X81.6499 Y7.0386 Z0 F60.000
G1 X81.6499 Y15.8686 Z0 F60.000
G1 X61.9499 Y15.8686 Z0 F60.000
G1 X61.9499 Y11.7696 Z0 F60.000
G0 Z9
(Block-name: block)
(Block-expand: 0)
(Block-enable: 1)
G0 Z9
G0 X61.9499 Y11.7696
G0 X84.4529 Y11.4596
G0 X84.4529 Y11.4596 Z7
G1 X84.4529 Y11.4596 Z3.5 F60.000
G3 X84.5379 Y11.1906 Z3.5 I0.447 J-0.006 K0 F60.000
G3 X85.2619 Y11.7166 Z3.5 I0.362 J0.263 K0 F60.000
G3 X84.4529 Y11.4596 Z3.5 I-0.362 J-0.263 K0 F60.000
G1 X84.4529 Y11.4596 Z3 F60.000
G3 X84.5379 Y11.1906 Z3 I0.447 J-0.006 K0 F60.000
G3 X85.2619 Y11.7166 Z3 I0.362 J0.263 K0 F60.000
G3 X84.4529 Y11.4596 Z3 I-0.362 J-0.263 K0 F60.000
G1 X84.4529 Y11.4596 Z2.5 F60.000
G3 X84.5379 Y11.1906 Z2.5 I0.447 J-0.006 K0 F60.000
G3 X85.2619 Y11.7166 Z2.5 I0.362 J0.263 K0 F60.000
G3 X84.4529 Y11.4596 Z2.5 I-0.362 J-0.263 K0 F60.000
G1 X84.4529 Y11.4596 Z2 F60.000
G3 X84.5379 Y11.1906 Z2 I0.447 J-0.006 K0 F60.000
G3 X85.2619 Y11.7166 Z2 I0.362 J0.263 K0 F60.000
G3 X84.4529 Y11.4596 Z2 I-0.362 J-0.263 K0 F60.000
G1 X84.4529 Y11.4596 Z1.5 F60.000
G3 X84.5379 Y11.1906 Z1.5 I0.447 J-0.006 K0 F60.000
G3 X85.2619 Y11.7166 Z1.5 I0.362 J0.263 K0 F60.000
G3 X84.4529 Y11.4596 Z1.5 I-0.362 J-0.263 K0 F60.000
G1 X84.4529 Y11.4596 Z1 F60.000
G3 X84.5379 Y11.1906 Z1 I0.447 J-0.006 K0 F60.000
G3 X85.2619 Y11.7166 Z1 I0.362 J0.263 K0 F60.000
G3 X84.4529 Y11.4596 Z1 I-0.362 J-0.263 K0 F60.000
G1 X84.4529 Y11.4596 Z0.5 F60.000
G3 X84.5379 Y11.1906 Z0.5 I0.447 J-0.006 K0 F60.000
G3 X85.2619 Y11.7166 Z0.5 I0.362 J0.263 K0 F60.000
G3 X84.4529 Y11.4596 Z0.5 I-0.362 J-0.263 K0 F60.000
G1 X84.4529 Y11.4596 Z0 F60.000
G3 X84.5379 Y11.1906 Z0 I0.447 J-0.006 K0 F60.000
G3 X85.2619 Y11.7166 Z0 I0.362 J0.263 K0 F60.000
G3 X84.4529 Y11.4596 Z0 I-0.362 J-0.263 K0 F60.000
G0 Z9
(Block-name: block)
(Block-expand: 0)
(Block-enable: 1)
G0 Z9
G0 X84.4529 Y11.4596
G0 Y11.4596 X88.1499
G0 Y11.4596 Z7 X88.1499
G1 X88.1499 Y11.4596 Z3.5 F60.000
G1 X88.1499 Y7.0386 Z3.5 F60.000
G1 X107.8499 Y7.0386 Z3.5 F60.000
G1 X107.8499 Y15.8686 Z3.5 F60.000
G1 X88.1499 Y15.8686 Z3.5 F60.000
G1 X88.1499 Y11.4596 Z3.5 F60.000
G1 X88.1499 Y11.4596 Z3 F60.000
G1 X88.1499 Y7.0386 Z3 F60.000
G1 X107.8499 Y7.0386 Z3 F60.000
G1 X107.8499 Y15.8686 Z3 F60.000
G1 X88.1499 Y15.8686 Z3 F60.000
G1 X88.1499 Y11.4596 Z3 F60.000
G1 X88.1499 Y11.4596 Z2.5 F60.000
G1 X88.1499 Y7.0386 Z2.5 F60.000
G1 X107.8499 Y7.0386 Z2.5 F60.000
G1 X107.8499 Y15.8686 Z2.5 F60.000
G1 X88.1499 Y15.8686 Z2.5 F60.000
G1 X88.1499 Y11.4596 Z2.5 F60.000
G1 X88.1499 Y11.4596 Z2 F60.000
G1 X88.1499 Y7.0386 Z2 F60.000
G1 X107.8499 Y7.0386 Z2 F60.000
G1 X107.8499 Y15.8686 Z2 F60.000
G1 X88.1499 Y15.8686 Z2 F60.000
G1 X88.1499 Y11.4596 Z2 F60.000
G1 X88.1499 Y11.4596 Z1.5 F60.000
G1 X88.1499 Y7.0386 Z1.5 F60.000
G1 X107.8499 Y7.0386 Z1.5 F60.000
G1 X107.8499 Y15.8686 Z1.5 F60.000
G1 X88.1499 Y15.8686 Z1.5 F60.000
G1 X88.1499 Y11.4596 Z1.5 F60.000
G1 X88.1499 Y11.4596 Z1 F60.000
G1 X88.1499 Y7.0386 Z1 F60.000
G1 X107.8499 Y7.0386 Z1 F60.000
G1 X107.8499 Y15.8686 Z1 F60.000
G1 X88.1499 Y15.8686 Z1 F60.000
G1 X88.1499 Y11.4596 Z1 F60.000
G1 X88.1499 Y11.4596 Z0.5 F60.000
G1 X88.1499 Y7.0386 Z0.5 F60.000
G1 X107.8499 Y7.0386 Z0.5 F60.000
G1 X107.8499 Y15.8686 Z0.5 F60.000
G1 X88.1499 Y15.8686 Z0.5 F60.000
G1 X88.1499 Y11.4596 Z0.5 F60.000
G1 X88.1499 Y11.4596 Z0 F60.000
G1 X88.1499 Y7.0386 Z0 F60.000
G1 X107.8499 Y7.0386 Z0 F60.000
G1 X107.8499 Y15.8686 Z0 F60.000
G1 X88.1499 Y15.8686 Z0 F60.000
G1 X88.1499 Y11.4596 Z0 F60.000
G0 Z9
(Block-name: block)
(Block-expand: 0)
(Block-enable: 1)
G0 Z9
G0 X88.1499 Y11.4596
G0 X110.6529 Y11.4536
G0 X110.6529 Y11.4536 Z7
G1 X110.6529 Y11.4536 Z3.5 F60.000
G3 X110.7379 Y11.1906 Z3.5 I0.447 J-0 K0 F60.000
G3 X111.4619 Y11.7166 Z3.5 I0.362 J0.263 K0 F60.000
G3 X110.6529 Y11.4536 Z3.5 I-0.362 J-0.263 K0 F60.000
G1 X110.6529 Y11.4536 Z3 F60.000
G3 X110.7379 Y11.1906 Z3 I0.447 J-0 K0 F60.000
G3 X111.4619 Y11.7166 Z3 I0.362 J0.263 K0 F60.000
G3 X110.6529 Y11.4536 Z3 I-0.362 J-0.263 K0 F60.000
G1 X110.6529 Y11.4536 Z2.5 F60.000
G3 X110.7379 Y11.1906 Z2.5 I0.447 J-0 K0 F60.000
G3 X111.4619 Y11.7166 Z2.5 I0.362 J0.263 K0 F60.000
G3 X110.6529 Y11.4536 Z2.5 I-0.362 J-0.263 K0 F60.000
G1 X110.6529 Y11.4536 Z2 F60.000
G3 X110.7379 Y11.1906 Z2 I0.447 J-0 K0 F60.000
G3 X111.4619 Y11.7166 Z2 I0.362 J0.263 K0 F60.000
G3 X110.6529 Y11.4536 Z2 I-0.362 J-0.263 K0 F60.000
G1 X110.6529 Y11.4536 Z1.5 F60.000
G3 X110.7379 Y11.1906 Z1.5 I0.447 J-0 K0 F60.000
G3 X111.4619 Y11.7166 Z1.5 I0.362 J0.263 K0 F60.000
G3 X110.6529 Y11.4536 Z1.5 I-0.362 J-0.263 K0 F60.000
G1 X110.6529 Y11.4536 Z1 F60.000
G3 X110.7379 Y11.1906 Z1 I0.447 J-0 K0 F60.000
G3 X111.4619 Y11.7166 Z1 I0.362 J0.263 K0 F60.000
G3 X110.6529 Y11.4536 Z1 I-0.362 J-0.263 K0 F60.000
G1 X110.6529 Y11.4536 Z0.5 F60.000
G3 X110.7379 Y11.1906 Z0.5 I0.447 J-0 K0 F60.000
G3 X111.4619 Y11.7166 Z0.5 I0.362 J0.263 K0 F60.000
G3 X110.6529 Y11.4536 Z0.5 I-0.362 J-0.263 K0 F60.000
G1 X110.6529 Y11.4536 Z0 F60.000
G3 X110.7379 Y11.1906 Z0 I0.447 J-0 K0 F60.000
G3 X111.4619 Y11.7166 Z0 I0.362 J0.263 K0 F60.000
G3 X110.6529 Y11.4536 Z0 I-0.362 J-0.263 K0 F60.000
G0 Z9
(Block-name: block)
(Block-expand: 0)
(Block-enable: 1)
G0 Z9
G0 X110.6529 Y11.4536
G0 Y11.4536 X55.4499
G0 Y11.4536 Z7 X55.4499
G1 X55.4499 Y11.4536 Z3.5 F60.000
G1 X55.4499 Y15.8686 Z3.5 F60.000
G1 X35.7499 Y15.8686 Z3.5 F60.000
G1 X35.7499 Y7.0386 Z3.5 F60.000
G1 X55.4499 Y7.0386 Z3.5 F60.000
G1 X55.4499 Y11.4536 Z3.5 F60.000
G1 X55.4499 Y11.4536 Z3 F60.000
G1 X55.4499 Y15.8686 Z3 F60.000
G1 X35.7499 Y15.8686 Z3 F60.000
G1 X35.7499 Y7.0386 Z3 F60.000
G1 X55.4499 Y7.0386 Z3 F60.000
G1 X55.4499 Y11.4536 Z3 F60.000
G1 X55.4499 Y11.4536 Z2.5 F60.000
G1 X55.4499 Y15.8686 Z2.5 F60.000
G1 X35.7499 Y15.8686 Z2.5 F60.000
G1 X35.7499 Y7.0386 Z2.5 F60.000
G1 X55.4499 Y7.0386 Z2.5 F60.000
G1 X55.4499 Y11.4536 Z2.5 F60.000
G1 X55.4499 Y11.4536 Z2 F60.000
G1 X55.4499 Y15.8686 Z2 F60.000
G1 X35.7499 Y15.8686 Z2 F60.000
G1 X35.7499 Y7.0386 Z2 F60.000
G1 X55.4499 Y7.0386 Z2 F60.000
G1 X55.4499 Y11.4536 Z2 F60.000
G1 X55.4499 Y11.4536 Z1.5 F60.000
G1 X55.4499 Y15.8686 Z1.5 F60.000
G1 X35.7499 Y15.8686 Z1.5 F60.000
G1 X35.7499 Y7.0386 Z1.5 F60.000
G1 X55.4499 Y7.0386 Z1.5 F60.000
G1 X55.4499 Y11.4536 Z1.5 F60.000
G1 X55.4499 Y11.4536 Z1 F60.000
G1 X55.4499 Y15.8686 Z1 F60.000
G1 X35.7499 Y15.8686 Z1 F60.000
G1 X35.7499 Y7.0386 Z1 F60.000
G1 X55.4499 Y7.0386 Z1 F60.000
G1 X55.4499 Y11.4536 Z1 F60.000
G1 X55.4499 Y11.4536 Z0.5 F60.000
G1 X55.4499 Y15.8686 Z0.5 F60.000
G1 X35.7499 Y15.8686 Z0.5 F60.000
G1 X35.7499 Y7.0386 Z0.5 F60.000
G1 X55.4499 Y7.0386 Z0.5 F60.000
G1 X55.4499 Y11.4536 Z0.5 F60.000
G1 X55.4499 Y11.4536 Z0 F60.000
G1 X55.4499 Y15.8686 Z0 F60.000
G1 X35.7499 Y15.8686 Z0 F60.000
G1 X35.7499 Y7.0386 Z0 F60.000
G1 X55.4499 Y7.0386 Z0 F60.000
G1 X55.4499 Y11.4536 Z0 F60.000
G0 Z9
(Block-name: block)
(Block-expand: 0)
(Block-enable: 1)
G0 Z9
G0 X55.4499 Y11.4536
G0 X32.9469 Y11.4536
G0 X32.9469 Y11.4536 Z7
G1 X32.9469 Y11.4536 Z3.5 F60.000
G3 X32.8619 Y11.7166 Z3.5 I-0.447 J0 K0 F60.000
G3 X32.1379 Y11.1906 Z3.5 I-0.362 J-0.263 K0 F60.000
G3 X32.9469 Y11.4536 Z3.5 I0.362 J0.263 K0 F60.000
G1 X32.9469 Y11.4536 Z3 F60.000
G3 X32.8619 Y11.7166 Z3 I-0.447 J0 K0 F60.000
G3 X32.1379 Y11.1906 Z3 I-0.362 J-0.263 K0 F60.000
G3 X32.9469 Y11.4536 Z3 I0.362 J0.263 K0 F60.000
G1 X32.9469 Y11.4536 Z2.5 F60.000
G3 X32.8619 Y11.7166 Z2.5 I-0.447 J0 K0 F60.000
G3 X32.1379 Y11.1906 Z2.5 I-0.362 J-0.263 K0 F60.000
G3 X32.9469 Y11.4536 Z2.5 I0.362 J0.263 K0 F60.000
G1 X32.9469 Y11.4536 Z2 F60.000
G3 X32.8619 Y11.7166 Z2 I-0.447 J0 K0 F60.000
G3 X32.1379 Y11.1906 Z2 I-0.362 J-0.263 K0 F60.000
G3 X32.9469 Y11.4536 Z2 I0.362 J0.263 K0 F60.000
G1 X32.9469 Y11.4536 Z1.5 F60.000
G3 X32.8619 Y11.7166 Z1.5 I-0.447 J0 K0 F60.000
G3 X32.1379 Y11.1906 Z1.5 I-0.362 J-0.263 K0 F60.000
G3 X32.9469 Y11.4536 Z1.5 I0.362 J0.263 K0 F60.000
G1 X32.9469 Y11.4536 Z1 F60.000
G3 X32.8619 Y11.7166 Z1 I-0.447 J0 K0 F60.000
G3 X32.1379 Y11.1906 Z1 I-0.362 J-0.263 K0 F60.000
G3 X32.9469 Y11.4536 Z1 I0.362 J0.263 K0 F60.000
G1 X32.9469 Y11.4536 Z0.5 F60.000
G3 X32.8619 Y11.7166 Z0.5 I-0.447 J0 K0 F60.000
G3 X32.1379 Y11.1906 Z0.5 I-0.362 J-0.263 K0 F60.000
G3 X32.9469 Y11.4536 Z0.5 I0.362 J0.263 K0 F60.000
G1 X32.9469 Y11.4536 Z0 F60.000
G3 X32.8619 Y11.7166 Z0 I-0.447 J0 K0 F60.000
G3 X32.1379 Y11.1906 Z0 I-0.362 J-0.263 K0 F60.000
G3 X32.9469 Y11.4536 Z0 I0.362 J0.263 K0 F60.000
G0 Z9
(Block-name: block)
(Block-expand: 0)
(Block-enable: 1)
G0 Z9
G0 X32.9469 Y11.4536
G0 Y11.4536 X29.2499
G0 Y11.4536 Z7 X29.2499
G1 X29.2499 Y11.4536 Z3.5 F60.000
G1 X29.2499 Y15.8686 Z3.5 F60.000
G1 X9.5499 Y15.8686 Z3.5 F60.000
G1 X9.5499 Y7.0386 Z3.5 F60.000
G1 X29.2499 Y7.0386 Z3.5 F60.000
G1 X29.2499 Y11.4536 Z3.5 F60.000
G1 X29.2499 Y11.4536 Z3 F60.000
G1 X29.2499 Y15.8686 Z3 F60.000
G1 X9.5499 Y15.8686 Z3 F60.000
G1 X9.5499 Y7.0386 Z3 F60.000
G1 X29.2499 Y7.0386 Z3 F60.000
G1 X29.2499 Y11.4536 Z3 F60.000
G1 X29.2499 Y11.4536 Z2.5 F60.000
G1 X29.2499 Y15.8686 Z2.5 F60.000
G1 X9.5499 Y15.8686 Z2.5 F60.000
G1 X9.5499 Y7.0386 Z2.5 F60.000
G1 X29.2499 Y7.0386 Z2.5 F60.000
G1 X29.2499 Y11.4536 Z2.5 F60.000
G1 X29.2499 Y11.4536 Z2 F60.000
G1 X29.2499 Y15.8686 Z2 F60.000
G1 X9.5499 Y15.8686 Z2 F60.000
G1 X9.5499 Y7.0386 Z2 F60.000
G1 X29.2499 Y7.0386 Z2 F60.000
G1 X29.2499 Y11.4536 Z2 F60.000
G1 X29.2499 Y11.4536 Z1.5 F60.000
G1 X29.2499 Y15.8686 Z1.5 F60.000
G1 X9.5499 Y15.8686 Z1.5 F60.000
G1 X9.5499 Y7.0386 Z1.5 F60.000
G1 X29.2499 Y7.0386 Z1.5 F60.000
G1 X29.2499 Y11.4536 Z1.5 F60.000
G1 X29.2499 Y11.4536 Z1 F60.000
G1 X29.2499 Y15.8686 Z1 F60.000
G1 X9.5499 Y15.8686 Z1 F60.000
G1 X9.5499 Y7.0386 Z1 F60.000
G1 X29.2499 Y7.0386 Z1 F60.000
G1 X29.2499 Y11.4536 Z1 F60.000
G1 X29.2499 Y11.4536 Z0.5 F60.000
G1 X29.2499 Y15.8686 Z0.5 F60.000
G1 X9.5499 Y15.8686 Z0.5 F60.000
G1 X9.5499 Y7.0386 Z0.5 F60.000
G1 X29.2499 Y7.0386 Z0.5 F60.000
G1 X29.2499 Y11.4536 Z0.5 F60.000
G1 X29.2499 Y11.4536 Z0 F60.000
G1 X29.2499 Y15.8686 Z0 F60.000
G1 X9.5499 Y15.8686 Z0 F60.000
G1 X9.5499 Y7.0386 Z0 F60.000
G1 X29.2499 Y7.0386 Z0 F60.000
G1 X29.2499 Y11.4536 Z0 F60.000
G0 Z9
(Block-name: block)
(Block-expand: 0)
(Block-enable: 1)
G0 Z9
G0 X29.2499 Y11.4536
G0 X6.7469 Y11.4536
G0 X6.7469 Y11.4536 Z7
G1 X6.7469 Y11.4536 Z3.5 F60.000
G3 X6.6619 Y11.7166 Z3.5 I-0.447 J0 K0 F60.000
G3 X5.9379 Y11.1906 Z3.5 I-0.362 J-0.263 K0 F60.000
G3 X6.7469 Y11.4536 Z3.5 I0.362 J0.263 K0 F60.000
G1 X6.7469 Y11.4536 Z3 F60.000
G3 X6.6619 Y11.7166 Z3 I-0.447 J0 K0 F60.000
G3 X5.9379 Y11.1906 Z3 I-0.362 J-0.263 K0 F60.000
G3 X6.7469 Y11.4536 Z3 I0.362 J0.263 K0 F60.000
G1 X6.7469 Y11.4536 Z2.5 F60.000
G3 X6.6619 Y11.7166 Z2.5 I-0.447 J0 K0 F60.000
G3 X5.9379 Y11.1906 Z2.5 I-0.362 J-0.263 K0 F60.000
G3 X6.7469 Y11.4536 Z2.5 I0.362 J0.263 K0 F60.000
G1 X6.7469 Y11.4536 Z2 F60.000
G3 X6.6619 Y11.7166 Z2 I-0.447 J0 K0 F60.000
G3 X5.9379 Y11.1906 Z2 I-0.362 J-0.263 K0 F60.000
G3 X6.7469 Y11.4536 Z2 I0.362 J0.263 K0 F60.000
G1 X6.7469 Y11.4536 Z1.5 F60.000
G3 X6.6619 Y11.7166 Z1.5 I-0.447 J0 K0 F60.000
G3 X5.9379 Y11.1906 Z1.5 I-0.362 J-0.263 K0 F60.000
G3 X6.7469 Y11.4536 Z1.5 I0.362 J0.263 K0 F60.000
G1 X6.7469 Y11.4536 Z1 F60.000
G3 X6.6619 Y11.7166 Z1 I-0.447 J0 K0 F60.000
G3 X5.9379 Y11.1906 Z1 I-0.362 J-0.263 K0 F60.000
G3 X6.7469 Y11.4536 Z1 I0.362 J0.263 K0 F60.000
G1 X6.7469 Y11.4536 Z0.5 F60.000
G3 X6.6619 Y11.7166 Z0.5 I-0.447 J0 K0 F60.000
G3 X5.9379 Y11.1906 Z0.5 I-0.362 J-0.263 K0 F60.000
G3 X6.7469 Y11.4536 Z0.5 I0.362 J0.263 K0 F60.000
G1 X6.7469 Y11.4536 Z0 F60.000
G3 X6.6619 Y11.7166 Z0 I-0.447 J0 K0 F60.000
G3 X5.9379 Y11.1906 Z0 I-0.362 J-0.263 K0 F60.000
G3 X6.7469 Y11.4536 Z0 I0.362 J0.263 K0 F60.000
G0 Z9
(Block-name: block)
(Block-expand: 0)
(Block-enable: 1)
G0 Z9
G0 Y11.4536 X6.7469
G0 Y11.4536 X1.2449
G0 Y11.4536 Z7 X1.2449
G1 X1.2449 Y11.4536 Z3.5 F60.000
G2 X3.0639 Y21.5346 Z3.5 I28.852 J-0 K0 F60.000
G2 X3.2999 Y21.7036 Z3.5 I0.236 J-0.081 K0 F60.000
G1 X114.0999 Y21.7036 Z3.5 F60.000
G2 X114.3359 Y21.5346 Z3.5 I0 J-0.25 K0 F60.000
G2 X116.0039 Y14.3996 Z3.5 I-27.034 J-10.081 K0 F60.000
G2 X114.3359 Y1.3726 Z3.5 I-28.702 J-2.946 K0 F60.000
G2 X114.0999 Y1.2036 Z3.5 I-0.236 J0.081 K0 F60.000
G1 X3.2999 Y1.2036 Z3.5 F60.000
G2 X3.0639 Y1.3726 Z3.5 I0 J0.25 K0 F60.000
G2 X1.2449 Y11.4536 Z3.5 I27.034 J10.081 K0 F60.000
G1 X1.2449 Y11.4536 Z3 F60.000
G2 X3.0639 Y21.5346 Z3 I28.852 J-0 K0 F60.000
G2 X3.2999 Y21.7036 Z3 I0.236 J-0.081 K0 F60.000
G1 X114.0999 Y21.7036 Z3 F60.000
G2 X114.3359 Y21.5346 Z3 I0 J-0.25 K0 F60.000
G2 X116.0039 Y14.3996 Z3 I-27.034 J-10.081 K0 F60.000
G2 X114.3359 Y1.3726 Z3 I-28.702 J-2.946 K0 F60.000
G2 X114.0999 Y1.2036 Z3 I-0.236 J0.081 K0 F60.000
G1 X3.2999 Y1.2036 Z3 F60.000
G2 X3.0639 Y1.3726 Z3 I0 J0.25 K0 F60.000
G2 X1.2449 Y11.4536 Z3 I27.034 J10.081 K0 F60.000
G1 X1.2449 Y11.4536 Z2.5 F60.000
G2 X3.0639 Y21.5346 Z2.5 I28.852 J-0 K0 F60.000
G2 X3.2999 Y21.7036 Z2.5 I0.236 J-0.081 K0 F60.000
G1 X114.0999 Y21.7036 Z2.5 F60.000
G2 X114.3359 Y21.5346 Z2.5 I0 J-0.25 K0 F60.000
G2 X116.0039 Y14.3996 Z2.5 I-27.034 J-10.081 K0 F60.000
G2 X114.3359 Y1.3726 Z2.5 I-28.702 J-2.946 K0 F60.000
G2 X114.0999 Y1.2036 Z2.5 I-0.236 J0.081 K0 F60.000
G1 X3.2999 Y1.2036 Z2.5 F60.000
G2 X3.0639 Y1.3726 Z2.5 I0 J0.25 K0 F60.000
G2 X1.2449 Y11.4536 Z2.5 I27.034 J10.081 K0 F60.000
G1 X1.2449 Y11.4536 Z2 F60.000
G2 X3.0639 Y21.5346 Z2 I28.852 J-0 K0 F60.000
G2 X3.2999 Y21.7036 Z2 I0.236 J-0.081 K0 F60.000
G1 X114.0999 Y21.7036 Z2 F60.000
G2 X114.3359 Y21.5346 Z2 I0 J-0.25 K0 F60.000
G2 X116.0039 Y14.3996 Z2 I-27.034 J-10.081 K0 F60.000
G2 X114.3359 Y1.3726 Z2 I-28.702 J-2.946 K0 F60.000
G2 X114.0999 Y1.2036 Z2 I-0.236 J0.081 K0 F60.000
G1 X3.2999 Y1.2036 Z2 F60.000
G2 X3.0639 Y1.3726 Z2 I0 J0.25 K0 F60.000
G2 X1.2449 Y11.4536 Z2 I27.034 J10.081 K0 F60.000
G1 X1.2449 Y11.4536 Z1.5 F60.000
G2 X3.0639 Y21.5346 Z1.5 I28.852 J-0 K0 F60.000
G2 X3.2999 Y21.7036 Z1.5 I0.236 J-0.081 K0 F60.000
G1 X114.0999 Y21.7036 Z1.5 F60.000
G2 X114.3359 Y21.5346 Z1.5 I0 J-0.25 K0 F60.000
G2 X116.0039 Y14.3996 Z1.5 I-27.034 J-10.081 K0 F60.000
G2 X114.3359 Y1.3726 Z1.5 I-28.702 J-2.946 K0 F60.000
G2 X114.0999 Y1.2036 Z1.5 I-0.236 J0.081 K0 F60.000
G1 X3.2999 Y1.2036 Z1.5 F60.000
G2 X3.0639 Y1.3726 Z1.5 I0 J0.25 K0 F60.000
G2 X1.2449 Y11.4536 Z1.5 I27.034 J10.081 K0 F60.000
G1 X1.2449 Y11.4536 Z1 F60.000
G2 X3.0639 Y21.5346 Z1 I28.852 J-0 K0 F60.000
G2 X3.2999 Y21.7036 Z1 I0.236 J-0.081 K0 F60.000
G1 X114.0999 Y21.7036 Z1 F60.000
G2 X114.3359 Y21.5346 Z1 I0 J-0.25 K0 F60.000
G2 X116.0039 Y14.3996 Z1 I-27.034 J-10.081 K0 F60.000
G2 X114.3359 Y1.3726 Z1 I-28.702 J-2.946 K0 F60.000
G2 X114.0999 Y1.2036 Z1 I-0.236 J0.081 K0 F60.000
G1 X3.2999 Y1.2036 Z1 F60.000
G2 X3.0639 Y1.3726 Z1 I0 J0.25 K0 F60.000
G2 X1.2449 Y11.4536 Z1 I27.034 J10.081 K0 F60.000
G1 X1.2449 Y11.4536 Z0.5 F60.000
G2 X3.0639 Y21.5346 Z0.5 I28.852 J-0 K0 F60.000
G2 X3.2999 Y21.7036 Z0.5 I0.236 J-0.081 K0 F60.000
G1 X114.0999 Y21.7036 Z0.5 F60.000
G2 X114.3359 Y21.5346 Z0.5 I0 J-0.25 K0 F60.000
G2 X116.0039 Y14.3996 Z0.5 I-27.034 J-10.081 K0 F60.000
G2 X114.3359 Y1.3726 Z0.5 I-28.702 J-2.946 K0 F60.000
G2 X114.0999 Y1.2036 Z0.5 I-0.236 J0.081 K0 F60.000
G1 X3.2999 Y1.2036 Z0.5 F60.000
G2 X3.0639 Y1.3726 Z0.5 I0 J0.25 K0 F60.000
G2 X1.2449 Y11.4536 Z0.5 I27.034 J10.081 K0 F60.000
G1 X1.2449 Y11.4536 Z0 F60.000
G2 X3.0639 Y21.5346 Z0 I28.852 J-0 K0 F60.000
G2 X3.2999 Y21.7036 Z0 I0.236 J-0.081 K0 F60.000
G1 X114.0999 Y21.7036 Z0 F60.000
G2 X114.3359 Y21.5346 Z0 I0 J-0.25 K0 F60.000
G2 X116.0039 Y14.3996 Z0 I-27.034 J-10.081 K0 F60.000
G2 X114.3359 Y1.3726 Z0 I-28.702 J-2.946 K0 F60.000
G2 X114.0999 Y1.2036 Z0 I-0.236 J0.081 K0 F60.000
G1 X3.2999 Y1.2036 Z0 F60.000
G2 X3.0639 Y1.3726 Z0 I0 J0.25 K0 F60.000
G2 X1.2449 Y11.4536 Z0 I27.034 J10.081 K0 F60.000
G0 Z9
(Block-name: block)
(Block-expand: 0)
(Block-enable: 1)
G0 Z9
(Finish operation: Profile)
(Begin postamble)
M5
G17 G90
M2
